svgs/regular/user-tie-hair.svg

<svg xmlns="http://www.w3.org/2000/svg" viewBox="0 0 448 512"><!--! Font Awesome Pro 6.3.0 by @fontawesome - https://fontawesome.com License - https://fontawesome.com/license (Commercial License) Copyright 2023 Fonticons, Inc. --><path d="M304 144V128c0-11.4-2.4-22.2-6.7-32H296c-20.5 0-38.7-9.6-50.4-24.5C231.9 95.7 205.8 112 176 112H145.6c-1 5.2-1.6 10.5-1.6 16v16c0 44.2 35.8 80 80 80s80-35.8 80-80zM224 0c70.7 0 128 57.3 128 128v16c0 70.7-57.3 128-128 128s-128-57.3-128-128V128C96 57.3 153.3 0 224 0zm30.8 418.4l43.8-87.6c3-6 9.4-9.5 15.9-8.4C390.4 335.6 448 401.7 448 481.3c0 17-13.8 30.7-30.7 30.7H30.7C13.8 512 0 498.2 0 481.3c0-79.6 57.6-145.7 133.5-158.9c6.6-1.1 12.9 2.4 15.9 8.4l43.8 87.6 15.9-59.2-18.6-31c-6.4-10.7 1.3-24.2 13.7-24.2H224h19.7c12.4 0 20.1 13.6 13.7 24.2l-18.6 31 15.9 59.2zM118.5 376.3C82.3 391.1 55.4 424.2 49.3 464h113l-43.8-87.7zM285.7 464h113c-6.1-39.8-33-72.9-69.2-87.7L285.7 464z"/></svg>

<svg xmlns="http://www.w3.org/2000/svg" viewBox="0 0 448 512"><!--! Font Awesome Pro 6.2.0 by @fontawesome - https://fontawesome.com License - https://fontawesome.com/license (Commercial License) Copyright 2022 Fonticons, Inc. --><path d="M352 128V144C352 214.7 294.7 272 224 272C153.3 272 96 214.7 96 144V128C96 57.31 153.3 0 224 0C294.7 0 352 57.31 352 128zM304 144V128C304 116.6 301.6 105.8 297.3 96H296C275.5 96 257.3 86.4 245.6 71.46C231.9 95.67 205.8 112 176 112H145.6C144.6 117.2 144 122.5 144 128V144C144 188.2 179.8 224 224 224C268.2 224 304 188.2 304 144zM30.72 512C13.75 512 0 498.2 0 481.3C0 397.9 63.28 329.3 144.4 320.9L193.2 418.4L209.1 359.2L175.1 304H271.1L238.9 359.2L254.8 418.4L303.6 320.9C384.7 329.3 448 397.9 448 481.3C448 498.2 434.2 512 417.3 512H30.72zM329.5 376.3L285.7 464H398.7C392.6 424.2 365.7 391.1 329.5 376.3V376.3zM49.31 464H162.3L118.5 376.3C82.28 391.1 55.41 424.2 49.31 464z"/></svg>
